src/static/logos/airbnb.svg

<?xml version="1.0" encoding="UTF-8" standalone="no"?>
<svg width="256px" height="276px" viewBox="0 0 256 276" version="1.1" xmlns="http://www.w3.org/2000/svg" xmlns:xlink="http://www.w3.org/1999/xlink" preserveAspectRatio="xMidYMid">
    <g>
        <path d="M238.04054,223.122821 C236.10911,237.466648 226.457473,249.879044 212.942976,255.395053 C206.322113,258.150302 199.152955,258.979632 191.981042,258.150302 C185.087409,257.323727 178.19102,255.116773 171.021862,250.983899 C161.091945,245.46238 151.162028,236.915598 139.578961,224.227676 C157.782891,201.888117 168.812153,181.477232 172.950537,163.278812 C174.881966,154.726519 175.157491,147.003556 174.330917,139.831643 C173.228817,132.93801 170.746338,126.592672 166.883478,121.076663 C158.333941,108.667021 143.99287,101.495108 127.995894,101.495108 C111.998918,101.495108 97.6578467,108.942546 89.108309,121.076663 C85.2454499,126.592672 82.7657258,132.93801 81.6608709,139.831643 C80.5587713,147.003556 80.8342962,155.002044 83.0412507,163.278812 C87.1768794,181.477232 98.4844214,202.163642 116.412827,224.500446 C105.105285,237.191123 94.8998425,245.74066 84.969925,251.256669 C77.800767,255.395053 70.9043787,257.602007 64.0107457,258.425827 C56.5633076,259.255157 49.3913943,258.150302 43.0488111,255.670578 C29.5343146,250.154569 19.8826773,237.739417 17.9512477,223.398346 C17.124673,216.504713 17.6757228,209.61108 20.4337271,201.888117 C21.2603018,199.127357 22.6406816,196.374864 24.0183061,193.063054 C25.9497357,188.651901 28.1566901,183.959712 30.3608893,179.270278 L30.6391695,178.721983 C49.6669192,137.624689 70.077804,95.7035748 91.3152635,54.8873158 L92.1418382,53.2286559 C94.3487927,49.0957823 96.5529919,44.6846287 98.7627016,40.5462446 C100.966901,36.1323357 103.44938,31.9939517 106.482909,28.4066174 C112.274443,21.785754 119.997406,18.201175 128.546944,18.201175 C137.096481,18.201175 144.819444,21.785754 150.610978,28.4066174 C153.644507,31.9939517 156.126986,36.1323357 158.333941,40.5462446 C160.540895,44.6846287 162.745094,49.0957823 164.952049,53.2286559 L165.781379,54.8873158 C186.740558,95.9790997 207.151443,137.900214 226.181948,178.997508 L226.181948,179.270278 C228.388902,183.684187 230.317577,188.651901 232.524531,193.063054 C233.904911,196.374864 235.282535,199.127357 236.10911,201.888117 C238.316065,209.057275 239.142639,215.956418 238.04054,223.122821 L238.04054,223.122821 Z M127.995894,210.159374 C113.103773,191.40715 103.44938,173.754269 100.140326,158.864903 C98.7627016,152.519565 98.4844214,147.003556 99.3137514,142.038598 C99.8648012,137.624689 101.520706,133.76183 103.724905,130.45002 C108.965389,123.010848 117.790451,118.313148 127.995894,118.313148 C138.201336,118.313148 147.301924,122.729812 152.266882,130.45002 C154.471082,133.76183 156.126986,137.624689 156.678036,142.038598 C157.504611,147.003556 157.229086,152.79509 155.851461,158.864903 C152.542407,173.481499 142.888015,191.131625 127.995894,210.159374 L127.995894,210.159374 Z M252.381611,195.818303 C251.003986,192.509249 249.623607,188.92467 248.245982,185.891141 C246.039028,180.928938 243.832073,176.236749 241.900644,171.82284 L241.625119,171.55007 C222.597369,130.177251 202.186484,88.2561367 180.6735,46.8915831 L179.846925,45.2329232 C177.639971,41.0945392 175.433016,36.6806302 173.228817,32.2694766 C170.468057,27.3017626 167.710053,22.0667894 163.298899,17.0990754 C154.471082,6.06705835 141.785915,0 128.271419,0 C114.481397,0 102.071756,6.06705835 92.9684129,16.5507809 C88.8327841,21.5129844 85.7992549,26.753468 83.0412507,31.721182 C80.8342962,36.1323357 78.6273417,40.5462446 76.4203873,44.6846287 L75.5938126,46.3350228 C54.3591083,87.7050869 33.6726987,129.628956 14.6421937,170.99902 L14.3666688,171.55007 C12.4352392,175.961224 10.2282847,180.647902 8.02133027,185.615616 C6.64370576,188.651901 5.263326,191.960955 3.88570148,195.545534 C0.298367256,205.748221 -0.803732353,215.402613 0.573892159,225.329776 C3.61017658,246.016185 17.4001979,263.393541 36.4307029,271.113749 C43.5998609,274.150033 51.047299,275.527658 58.770262,275.527658 C60.9772165,275.527658 63.7352208,275.252133 65.9421752,274.973852 C75.0427628,273.868998 84.4188752,270.840979 93.5194627,265.59774 C104.82976,259.255157 115.586252,250.154569 127.720369,236.915598 C139.854486,250.154569 150.886503,259.255157 161.91852,265.59774 C171.021862,270.840979 180.397975,273.868998 189.498562,274.973852 C191.705517,275.252133 194.463521,275.527658 196.670476,275.527658 C204.393439,275.527658 212.113646,274.150033 219.010035,271.113749 C238.316065,263.393541 251.830561,245.74066 254.86409,225.329776 C257.071045,215.675383 255.96619,206.026501 252.381611,195.818303 L252.381611,195.818303 Z" fill="#E0565B"></path>
    </g>
</svg>

<svg width="256" height="276" xmlns="http://www.w3.org/2000/svg" preserveAspectRatio="xMidYMid"><path d="M238.04 223.123c-1.93 14.344-11.583 26.756-25.097 32.272-6.62 2.755-13.79 3.585-20.962 2.755-6.894-.826-13.79-3.033-20.96-7.166-9.93-5.522-19.859-14.068-31.442-26.756 18.204-22.34 29.233-42.75 33.372-60.95 1.931-8.551 2.206-16.274 1.38-23.446-1.102-6.894-3.585-13.24-7.448-18.755-8.55-12.41-22.89-19.582-38.887-19.582s-30.338 7.448-38.888 19.582c-3.863 5.516-6.342 11.861-7.447 18.755-1.102 7.172-.827 15.17 1.38 23.447 4.136 18.198 15.443 38.885 33.372 61.221-11.308 12.691-21.513 21.24-31.443 26.757-7.17 4.138-14.066 6.345-20.96 7.169a44.124 44.124 0 01-20.961-2.755c-13.515-5.516-23.166-17.932-25.098-32.273-.826-6.893-.275-13.787 2.483-21.51.826-2.76 2.207-5.513 3.584-8.825 1.932-4.411 4.139-9.103 6.343-13.793l.278-.548c19.028-41.097 39.439-83.018 60.676-123.835l.827-1.658c2.207-4.133 4.411-8.544 6.62-12.683 2.205-4.414 4.687-8.552 7.72-12.14 5.792-6.62 13.515-10.205 22.065-10.205s16.272 3.585 22.064 10.206c3.034 3.587 5.516 7.725 7.723 12.14 2.207 4.138 4.411 8.549 6.618 12.682l.83 1.658c20.959 41.092 41.37 83.013 60.4 124.11v.273c2.207 4.414 4.136 9.382 6.343 13.793 1.38 3.312 2.758 6.064 3.584 8.825 2.207 7.17 3.034 14.068 1.932 21.235zm-110.044-12.964c-14.892-18.752-24.547-36.405-27.856-51.294-1.377-6.345-1.656-11.861-.826-16.826.55-4.414 2.207-8.277 4.41-11.589 5.241-7.44 14.066-12.137 24.272-12.137 10.205 0 19.306 4.417 24.27 12.137 2.205 3.312 3.861 7.175 4.412 11.589.827 4.965.551 10.756-.827 16.826-3.309 14.616-12.963 32.267-27.855 51.294zm124.386-14.34c-1.378-3.31-2.758-6.894-4.136-9.928-2.207-4.962-4.414-9.654-6.345-14.068l-.276-.273c-19.028-41.373-39.439-83.294-60.952-124.658l-.826-1.66c-2.207-4.137-4.414-8.551-6.618-12.963-2.76-4.967-5.519-10.202-9.93-15.17C154.47 6.067 141.786 0 128.27 0c-13.79 0-26.2 6.067-35.303 16.55-4.135 4.963-7.169 10.203-9.927 15.171-2.207 4.411-4.414 8.825-6.62 12.964l-.827 1.65c-21.235 41.37-41.921 83.294-60.952 124.664l-.275.551c-1.932 4.411-4.139 9.098-6.346 14.066a182.774 182.774 0 00-4.135 9.93C.298 205.748-.804 215.403.574 225.33 3.61 246.016 17.4 263.394 36.43 271.114c7.169 3.036 14.616 4.414 22.34 4.414 2.206 0 4.964-.276 7.171-.554 9.1-1.105 18.477-4.133 27.577-9.376 11.31-6.343 22.067-15.443 34.201-28.682 12.134 13.239 23.167 22.34 34.199 28.682 9.103 5.243 18.479 8.271 27.58 9.376 2.207.278 4.965.554 7.171.554 7.723 0 15.444-1.378 22.34-4.414 19.306-7.72 32.82-25.373 35.854-45.784 2.207-9.655 1.102-19.303-2.482-29.512z" fill="#E0565B"/></svg>
